X: 18126
T: Humours Of Carrigaholt, The
R: reel
M: 4/4
K: Dmajor
"D"dcAF "G"G2AG|"D"FDDE FGAB|"Am"=cAAF "G"G2 FG|"D"Adde "A"fdec|
"D"dcAF "G"G2AG|"D"FDDE FGAB|"Am"=cAAF "G"G2 FG|"D"Addc d4||
"D"fdde fdgf|"A"edcd "G"efge|"D"fdde fdgf|"A"edcd "G"e3 g|
"D"fdde fdgf|"A"edcd "G"efge|"D"agfa "A"gfec|"D"df"A"ec "D"d4||

